src/images/icons/instagram.svg

<svg height="24" viewBox="0 0 24 24" width="24" xmlns="http://www.w3.org/2000/svg"><path d="m23.904057 7.0546875c-.0561038-1.27496339-.2618787-2.15148928-.556652-2.91101072-.3040936-.80621339-.7719299-1.52801517-1.3848684-2.12805178-.598867-.609375-1.3240132-1.08288572-2.1193348-1.3828125-.762427-.29534911-1.6326755-.50152589-2.9051536-.55773928-1.2819809-.06097411-1.6889619-.07507322-4.9404239-.07507322-3.25146201 0-3.65844301.01409911-4.93567253.0703125-1.27247809.05621339-2.14729535.26257322-2.90515355.55773928-.80482451.3046875-1.52521927.7734375-2.12408622 1.38757322-.60818713.60003661-1.08059214 1.32659911-1.38011696 2.12347411-.29477338.76409911-.50054826 1.63586428-.55665207 2.91082767-.06085525 1.28448483-.07492688 1.69226072-.07492688 4.95007322s.01407163 3.6655884.07017544 4.9453125c.05610382 1.2749634.26206138 2.1514893.55683476 2.9110107.30409357.8062134.77649858 1.5280152 1.38468571 2.1280518.59886695.609375 1.32401315 1.0828857 2.11933478 1.3828125.76260964.2953491 1.63267547.5015259 2.90533624.5577393 1.27704683.0563964 1.68421052.0703125 4.93567248.0703125 3.251462 0 3.658443-.0139161 4.9356725-.0703125 1.2724781-.0562134 2.1472954-.2623902 2.9051536-.5577393 1.6094663-.6234741 2.8819444-1.8984375 3.5042032-3.5108643.2945907-.7640991.5005482-1.6360473.556652-2.9110107.0561039-1.2797241.0701755-1.6875.0701755-4.9453125s-.0047515-3.66558839-.0608553-4.9453125zm-2.1566155 9.796875c-.0515351 1.171875-.2479898 1.8046875-.4117324 2.2265625-.4024123 1.0453491-1.2304459 1.875-2.2737573 2.2781982-.4210527.1640625-1.0572004.3609009-2.2222223.4123536-1.2631579.0563964-1.6419956.0703125-4.8373538.0703125-3.19535816 0-3.57894735-.0139161-4.8375365-.0703125-1.16959064-.0514527-1.80116959-.2482911-2.22222222-.4123536-.51918863-.1922607-.99177633-.4969482-1.37536552-.8953857-.39766082-.3890991-.70175438-.8578491-.89364033-1.3780518-.16374269-.421875-.36019738-1.0594482-.41154975-2.2265625-.0562865-1.265625-.07017544-1.6453857-.07017544-4.8469848 0-3.20159912.01388894-3.58593751.07017544-4.84680179.05135237-1.171875.24780706-1.8046875.41154975-2.2265625.19188595-.52038572.49597951-.99371339.89839177-1.37823483.38815794-.3984375.8559942-.703125 1.37536552-.89520267.42105263-.1640625 1.05738302-.36090089 2.22222222-.41253661 1.2631579-.05621339 1.64217834-.0703125 4.83735386-.0703125 3.2001096 0 3.5789473.01409911 4.8375365.0703125 1.1695906.05163572 1.8011696.24847411 2.2222222.41253661.5191886.19207767.9917763.49676517 1.3753655.89520267.3976608.38909911.7017544.85784911.8936404 1.37823483.1637426.421875.3601973 1.05926517.4117324 2.2265625.0561038 1.265625.0701754 1.64520267.0701754 4.84680179 0 3.2015991-.0140716 3.5765991-.0701754 4.8422241z"/><path d="m11.9976243 5.8359375c-3.39638163 0-6.1520468 2.76086428-6.1520468 6.1640625 0 3.4031982 2.75566517 6.1640625 6.1520468 6.1640625 3.3965643 0 6.1520468-2.7608643 6.1520468-6.1640625 0-3.40319822-2.7554825-6.1640625-6.1520468-6.1640625zm0 10.1625366c-2.20339918 0-3.99067983-1.7905884-3.99067983-3.9984741 0-2.20788572 1.78728065-3.99847411 3.99067983-3.99847411 2.2035818 0 3.9906798 1.79058839 3.9906798 3.99847411 0 2.2078857-1.787098 3.9984741-3.9906798 3.9984741z"/><path d="m19.8293128 5.59222411c0 .79467773-.643092 1.43902589-1.4364034 1.43902589-.7931287 0-1.4362208-.64434816-1.4362208-1.43902589 0-.79486083.6430921-1.43902589 1.4362208-1.43902589.7933114 0 1.4364034.64416506 1.4364034 1.43902589z"/></svg>

<?xml version="1.0" encoding="UTF-8"?>
<svg width="24px" height="24px" viewBox="0 0 24 24" version="1.1" xmlns="http://www.w3.org/2000/svg" xmlns:xlink="http://www.w3.org/1999/xlink">
    <path d="M23.904057,7.0546875 C23.8479532,5.77972411 23.6421783,4.90319822 23.347405,4.14367678 C23.0433114,3.33746339 22.5754751,2.61566161 21.9625366,2.015625 C21.3636696,1.40625 20.6385234,0.932739281 19.8432018,0.6328125 C19.0807748,0.337463391 18.2105263,0.131286609 16.9380482,0.0750732188 C15.6560673,0.0140991094 15.2490863,0 11.9976243,0 C8.74616229,0 8.33918129,0.0140991094 7.06195177,0.0703125 C5.78947368,0.126525891 4.91465642,0.332885719 4.15679822,0.628051781 C3.35197371,0.932739281 2.63157895,1.40148928 2.032712,2.015625 C1.42452487,2.61566161 0.95211986,3.34222411 0.652595041,4.13909911 C0.357821661,4.90319822 0.152046784,5.77496339 0.0959429708,7.04992678 C0.0350877193,8.33441161 0.0210160936,8.7421875 0.0210160936,12 C0.0210160936,15.2578125 0.0350877193,15.6655884 0.0911915322,16.9453125 C0.147295345,18.2202759 0.353252912,19.0968018 0.648026292,19.8563232 C0.95211986,20.6625366 1.42452487,21.3843384 2.032712,21.984375 C2.63157895,22.59375 3.35672515,23.0672607 4.15204678,23.3671875 C4.91465642,23.6625366 5.78472225,23.8687134 7.05738302,23.9249268 C8.33442985,23.9813232 8.74159354,23.9952393 11.9930555,23.9952393 C15.2445175,23.9952393 15.6514985,23.9813232 16.928728,23.9249268 C18.2012061,23.8687134 19.0760234,23.6625366 19.8338816,23.3671875 C21.4433479,22.7437134 22.715826,21.46875 23.3380848,19.8563232 C23.6326755,19.0922241 23.838633,18.2202759 23.8947368,16.9453125 C23.9508407,15.6655884 23.9649123,15.2578125 23.9649123,12 C23.9649123,8.7421875 23.9601608,8.33441161 23.904057,7.0546875 Z M21.7474415,16.8515625 C21.6959064,18.0234375 21.4994517,18.65625 21.3357091,19.078125 C20.9332968,20.1234741 20.1052632,20.953125 19.0619518,21.3563232 C18.6408991,21.5203857 18.0047514,21.7172241 16.8397295,21.7686768 C15.5765716,21.8250732 15.1977339,21.8389893 12.0023757,21.8389893 C8.80701754,21.8389893 8.42342835,21.8250732 7.1648392,21.7686768 C5.99524856,21.7172241 5.36366961,21.5203857 4.94261698,21.3563232 C4.42342835,21.1640625 3.95084065,20.859375 3.56725146,20.4609375 C3.16959064,20.0718384 2.86549708,19.6030884 2.67361113,19.0828857 C2.50986844,18.6610107 2.31341375,18.0234375 2.26206138,16.8563232 C2.20577488,15.5906982 2.19188594,15.2109375 2.19188594,12.0093384 C2.19188594,8.80773928 2.20577488,8.42340089 2.26206138,7.16253661 C2.31341375,5.99066161 2.50986844,5.35784911 2.67361113,4.93597411 C2.86549708,4.41558839 3.16959064,3.94226072 3.5720029,3.55773928 C3.96016084,3.15930178 4.4279971,2.85461428 4.94736842,2.66253661 C5.36842105,2.49847411 6.00475144,2.30163572 7.16959064,2.25 C8.43274854,2.19378661 8.81176898,2.1796875 12.0069445,2.1796875 C15.2070541,2.1796875 15.5858918,2.19378661 16.844481,2.25 C18.0140716,2.30163572 18.6456506,2.49847411 19.0667032,2.66253661 C19.5858918,2.85461428 20.0584795,3.15930178 20.4420687,3.55773928 C20.8397295,3.94683839 21.1438231,4.41558839 21.3357091,4.93597411 C21.4994517,5.35784911 21.6959064,5.99523928 21.7474415,7.16253661 C21.8035453,8.42816161 21.8176169,8.80773928 21.8176169,12.0093384 C21.8176169,15.2109375 21.8035453,15.5859375 21.7474415,16.8515625 Z" fill-rule="nonzero" />
    <path d="M11.9976243,5.8359375 C8.60124267,5.8359375 5.8455775,8.59680178 5.8455775,12 C5.8455775,15.4031982 8.60124267,18.1640625 11.9976243,18.1640625 C15.3941886,18.1640625 18.1496711,15.4031982 18.1496711,12 C18.1496711,8.59680178 15.3941886,5.8359375 11.9976243,5.8359375 Z M11.9976243,15.9984741 C9.79422512,15.9984741 8.00694447,14.2078857 8.00694447,12 C8.00694447,9.79211428 9.79422512,8.00152589 11.9976243,8.00152589 C14.2012061,8.00152589 15.9883041,9.79211428 15.9883041,12 C15.9883041,14.2078857 14.2012061,15.9984741 11.9976243,15.9984741 L11.9976243,15.9984741 Z" fill-rule="nonzero" />
    <path d="M19.8293128,5.59222411 C19.8293128,6.38690184 19.1862208,7.03125 18.3929094,7.03125 C17.5997807,7.03125 16.9566886,6.38690184 16.9566886,5.59222411 C16.9566886,4.79736328 17.5997807,4.15319822 18.3929094,4.15319822 C19.1862208,4.15319822 19.8293128,4.79736328 19.8293128,5.59222411 L19.8293128,5.59222411 Z" fill-rule="nonzero" />
</svg>
